resources/haticons/SVG/laravel.svg

<!-- Generated by IcoMoon.io -->
<svg version="1.1" xmlns="http://www.w3.org/2000/svg" width="24" height="24" viewBox="0 0 24 24">
<title>laravel</title>
<path d="M6.46 13.27l-6.39-10.67c0.288-1.484 1.577-2.59 3.125-2.59h17.625c1.32 0 2.45 0.8 2.93 1.94-0.52-0.48-0.83-0.36-1.2-0.3-0.46 0.060-5.7 0.94-6.3 1.050-0.62 0.1-1 0.34-0.62 0.87l4.53 6.42-13.7 3.28zM5.55 15.43l-5.55 1.45v3.93c0.006 1.763 1.436 3.19 3.2 3.19h7.19c-0.94-1.53-3.5-6.15-4.83-8.56h-0.010zM15.8 23.99h5.020c1.68 0 3.050-1.3 3.17-2.93l-8.19 2.93zM4.44 13.36l-4.42-7.63v9.1l4.33-1.040c0.35-0.080 0.26-0.12 0.090-0.43zM23.37 3.12c-0.25-0.34-0.43-0.29-0.63-0.24s-4.77 0.87-5.050 0.9c-0.28 0.050-0.19 0.2-0.070 0.36l4 5.5 2.38-0.57v-5.14c-0.159-0.193-0.365-0.453-0.568-0.716l-0.062-0.084zM20.8 11.46l-13.36 3.48s4.1 7.1 4.41 7.55c0.32 0.46 0.51 0.42 0.76 0.32 0.18-0.080 7.8-2.66 11.39-3.87v-3.81l-2.56-3.5c-0.16-0.25-0.25-0.3-0.64-0.17zM22.75 11.1l1.25 1.68v-2.19l-1.35 0.37 0.1 0.14z"></path>
</svg>

<svg xmlns="http://www.w3.org/2000/svg" width="24" height="24"><path d="M6.46 13.27L.07 2.6A3.186 3.186 0 0 1 3.195.01H20.82c1.32 0 2.45.8 2.93 1.94-.52-.48-.83-.36-1.2-.3-.46.06-5.7.94-6.3 1.05-.62.1-1 .34-.62.87l4.53 6.42-13.7 3.28zm-.91 2.16L0 16.88v3.93A3.2 3.2 0 0 0 3.2 24h7.19c-.94-1.53-3.5-6.15-4.83-8.56h-.01zm10.25 8.56h5.02c1.68 0 3.05-1.3 3.17-2.93l-8.19 2.93zM4.44 13.36L.02 5.73v9.1l4.33-1.04c.35-.08.26-.12.09-.43zM23.37 3.12c-.25-.34-.43-.29-.63-.24s-4.77.87-5.05.9c-.28.05-.19.2-.07.36l4 5.5L24 9.07V3.93a30.683 30.683 0 0 1-.568-.716l-.062-.084zm-2.57 8.34L7.44 14.94s4.1 7.1 4.41 7.55c.32.46.51.42.76.32.18-.08 7.8-2.66 11.39-3.87v-3.81l-2.56-3.5c-.16-.25-.25-.3-.64-.17zm1.95-.36L24 12.78v-2.19l-1.35.37.1.14z"/></svg>
